X:1
T:Bone Jesu
T:Giacomo Arrigoni
T:Source : Ghirlanda Sacra---Venetia---Ang.Gardano (B.Magni)---1625. Editor : André Vierendeels (19/12/16).
T:Notes : Original clefs : C1, F4 Dotted brackets indicate black notes m 14 in BC : "D" is missing in original print Music collected by Leonardo Simonetti
T:Bone Jesu
T:©
T:©
T:©
T:©
T:©
C:Giacomo Arrigoni
Z:©
%%score 1 2
L:1/8
Q:1/4=121
M:4/4
K:F
V:1 treble nm="Soprano" snm="S"
V:2 bass nm="MusicXML Part"
V:1
 z4 d4- | d4 d4 | d4 c4 | d8 | z4 A4- | A4 A4 | A4 G4 | A4 ^cccc | d2 d2 B3 c | d8 | B4 dc dB | %11
w: Bo-|* ne|JE- *|SU,|bo-|* ne|JE- *|SU, bo- n', bo- ne|JE- SU ver- bum|Pa-|tris splen- * * *|
 c2 A2 cB cA | B2 AG c4- | c2 B2 A3 G | G8 |[M:6/4] B2 A2 B2 G2 c2 B2 | A6 G2 F4 | %17
w: * dor, splen- * * *|* dor ae- ter-|* ne glo- ri-|ae|in _ quem _ de- *|si- de- rant|
 d2 c2 B2 A2 G2 F2 | B2 A2 G6 F2 | F12 | A2 G2 A2 F2 c2 =B2 | c6 c2 c4 | B2 A2 B2 G2 d2 ^c2 | %23
w: An- * ge- * li _|pro- * spi- ce-|re|in _ quem _ de- *|si- de- rant|in _ quem _ de- *|
 d6 d2 d4 | B2 A2 B2 c2 d2 G2 | c2 B2 A6 G2 |[M:2/2] G4 =BBBB | c4 ^cccc | d2 d/c/B/A/ B2 G>c | %29
w: si- de- rant|An- * ge- * li _|pro- * spi- ce-|re, do- ce, do- ce|me, do- ce, do- ce|me, do- * * * * ce me|
 A>G F2 dcc=B | =B4 A4 | c2 B2 AAAG | F2 EF F2 E2 | F2 GG AA=BB/B/ | ^cc/c/dd d2 c2 | d4 d2 d_e | %36
w: fa- ce- re vo- lun- ta- tem|tu- am|ut à Spi- ri- tu tu-|o bo- no de- du-|ctus ad Be- a- tam il- lam per|ve- ni- am Ci- vi- ta- *|tem u- bi est|
 c2 cB B2 B2 | z BBB B2 BA | A3 G G4 | =BB/B/BB/A/ cc/c/ z G/G/ | c2 cG AA/A/ z A/A/ | %41
w: di- es ae- ter- nus|et u- nus o- mni- um|Spi- ri- tus,|u- bi est cer- ta se- cu- ri- tas et se-|cu- ra ae- ter- ni- tas et ae-|
 AA/A/ z A/A/ d2 dA | =BB/B/ z B/B/ e2 eB | ^c>c c2 z2 f/e/f/g/ | ^c2 dd d3 c | d2 BB _e4- | %46
w: ter- ni- tas et ae- eter- na tran-|qui- li- tas et tran- qui- la fe-|li- ci- tas et _ _ _|fe- lix su- a- vi-|tas et su- a-|
 e2 dc c3 B | B4 z B/c/ d2- | d2 A2 B4- | B2 cd A3 G | G8 |] %51
w: * vis iu- cun- di-|tas, et _ _|_ su- a-|* vis iu- cun- di-|tas.|
V:2
"^BC" G,8- | G,4 F,4 | _E,8 | D,8 | D,8- | D,4 C,4 | B,,8 | A,,4 A,,4 | ^F,,4 G,,2 _E,,2 | F,,8 | %10
 B,,4 B,,4 | F,4 F,4 | G,4 _E,2 D,C, | D,8 | G,,8 |[M:6/4] F,8 E,4 | F,12 | B,,4 C,4 D,4 | %18
 B,,4 C,8 | F,,12 | E,8 D,4 | C,12 | G,8 E,4 | D,6 D,2 D,4 | G,4 F,4 _E,4 | C,4 D,8 | %26
[M:2/2] G,,4 G,4 | C,4 A,,4 | D,2 ^F,2 G,2 E,2 | F,4 D,4 | E,4 A,,2 G,,2 | F,,2 G,,2 A,,2 B,,2 | %32
 C,2 A,,2 B,,2 C,2 | F,2 E,2 F,2 G,2 | A,2 B,2 A,4 | D,4 B,,4 | _E,2 F,2 B,,4 | C,2 D,2 _E,2 C,2 | %38
 D,4 G,,4 | G,4 C,4 | E,4 F,4 | F,4 ^F,4 | G,4 E,4 | A,4 A,4 | A,2 G,2 A,4 | D,2 G,2 _E,4 | F,8 | %47
 B,,4 B,3 A,/G,/ | ^F,4 G,4 | _E,2 C,2 D,4 | G,,8 |] %51

